!!!!SEGMENT: pl-kk--kk-i-289--002_anonim--gaudete-omnes.krn
!!!cenid: 17xx:2171
!!!COM: Anonim
!!!COM-rismid: pe30004985
!!!CDT:
!!!CNT:
!!!OTL: Gaudete omnes
!!!PDT:
!!!AGN: Sacred
!!!SMS-siglum: PL-Kk
!!!SMS-shelfmark: Kk.I.289
!!!SMS-shelfwork: 002 W
!!!SMS-variant:
!!!SMS-altvar:
!!!NIFC-rismid: 1001147279
!!!URL-scan: http://repozytorium.nifc.pl/skany/pl-kk-nut--i-289
!!!ONB-nifc: UWAGA: utwory w zbiorze: 1. Spiritus sancti gratia, 2. Gaudete omnes
!!!key:
**kern	**text	**kern	**text	**kern	**text	**kern	**text	**kern	**text
*part5	*part5	*part4	*part4	*part3	*part3	*part2	*part2	*part1	*part1
*staff5	*staff5	*staff4	*staff4	*staff3	*staff3	*staff2	*staff2	*staff1	*staff1
*group1	*	*group1	*	*group1	*	*group1	*	*group1	*
*>[A,B,A]	*	*>[A,B,A]	*	*>[A,B,A]	*	*>[A,B,A]	*	*>[A,B,A]	*
*Iempty	*	*Itenor	*	*Ialto	*	*Ivox	*	*Ivox	*
*I"Baſso.	*	*I"Tenore	*	*I"alto	*	*I"Canto. 2do.	*	*I"Canto 1mo.	*
*I'B	*	*I'T	*	*I'A	*	*I'S 2	*	*I'S 1	*
*clefF4	*	*clefC4	*	*clefC3	*	*clefC1	*	*clefC1	*
*k[]	*	*k[]	*	*k[]	*	*k[]	*	*k[]	*
*C:	*	*C:	*	*C:	*	*C:	*	*C:	*
*M3/2	*	*M3/2	*	*M3/2	*	*M3/2	*	*M3/2	*
*	*	*all\right	*	*	*	*	*	*	*
=1-	=1-	=1-	=1-	=1-	=1-	=1-	=1-	=1-	=1-
*>A	*	*>A	*	*>A	*	*>A	*	*>A	*
!LO:TX:a:t=a 5 Vo(c)i	!	!LO:TX:a:t=a 5 Vo(c)i	!	!LO:TX:a:t=a 5 Vo(c)i	!	!LO:TX:a:t=a 5 Vo(c)i	!	!LO:TX:a:t=a 5 Vo(c)i	!
00.r	.	00.r	.	0.rA	.	00.r	.	1g	Gau-
.	.	.	.	.	.	.	.	1b	-de-
.	.	.	.	.	.	.	.	1cc	-te
=2-	=2-	=2-	=2-	=2-	=2-	=2-	=2-	=2-	=2-
.	.	.	.	1d	Gau-	.	.	1dd	o-
.	.	.	.	1f	-de-	.	.	2dd\	-mnes
.	.	.	.	.	.	.	.	2dd\	et
.	.	.	.	1g	-te	.	.	2cc\	e-
.	.	.	.	.	.	.	.	2b\	-xul-
=3-	=3-	=3-	=3-	=3-	=3-	=3-	=3-	=3-	=3-
00.r	.	0.rF	.	1a	o-	00.r	.	1cc	-ta-
.	.	.	.	2a\	-mnes	.	.	2cc\	-te
.	.	.	.	2a\	et	.	.	2cc\	et
.	.	.	.	2g\	e-	.	.	2b\	e-
.	.	.	.	2f\	-xul-	.	.	2a\	-xul-
=4-	=4-	=4-	=4-	=4-	=4-	=4-	=4-	=4-	=4-
.	.	1G	Gau-	0g	-ta-	.	.	1b	-ta-
.	.	1B	-de-	.	.	.	.	0b	-te
.	.	1c	-te	1g	-te	.	.	.	.
=5-	=5-	=5-	=5-	=5-	=5-	=5-	=5-	=5-	=5-
1D	Gau-	1d	o-	0f.	me-	00.r	.	1a	me-
*	*	*2\right	*	*	*	*	*	*	*
1F	-de-	2d\	-mnes	.	.	.	.	1a	-cu(m)
.	.	2d\	et	.	.	.	.	.	.
1G	-te	2c\	e-	.	.	.	.	1r	.
.	.	2B\	-xul-	.	.	.	.	.	.
=6-	=6-	=6-	=6-	=6-	=6-	=6-	=6-	=6-	=6-
1A	o-	1c	-ta-	0e	-cu(m)	.	.	0.r	.
2A\	-mnes	2c,<\	-te	.	.	.	.	.	.
2A\	et	2c\	et	.	.	.	.	.	.
2G\	e-	2B\	e-	1r	.	.	.	.	.
2F\	-xul-	2A/	-xul-	.	.	.	.	.	.
=7-	=7-	=7-	=7-	=7-	=7-	=7-	=7-	=7-	=7-
0.G	-ta-	0B	-ta-	0.r	.	00.r	.	1d	Gau-
.	.	.	.	.	.	.	.	1d	-de-
.	.	1B	-te	.	.	.	.	1e	-te
=8-	=8-	=8-	=8-	=8-	=8-	=8-	=8-	=8-	=8-
*	*	*	*	*	*ij	*	*	*	*
0.F	-te	0.A	me-	1A	Gau-	.	.	1f	o-
.	.	.	.	1.c	-de-	.	.	2f/	-mnes
.	.	.	.	.	.	.	.	2g/	et
.	.	.	.	.	.	.	.	2a\	e-
.	.	.	.	2d\	-te	.	.	2f/	-xul-
!	!	!	!	!	!	!	!	!LO:LB:g=original	!
=9-	=9-	=9-	=9-	=9-	=9-	=9-	=9-	=9-	=9-
0.E	me-	0G	-cu(m)	1e	o-	1g	Gau-	0g	-ta-
.	.	.	.	2e\	-mnes	1b	-de-	.	.
.	.	.	.	2f\	et	.	.	.	.
.	.	1rA	.	2g\	e-	1cc	-te	1g	-te
.	.	.	.	2e\	-xul-	.	.	.	.
=10-	=10-	=10-	=10-	=10-	=10-	=10-	=10-	=10-	=10-
0.D	-cu(m)	1D	gau-	0f	-ta-	1dd	o-	1a	me-
.	.	1.F	-de-	.	.	2dd\	-mnes	1a	-cu(m)
.	.	.	.	.	.	2dd\	et	.	.
.	.	.	.	1f	-te	2cc\	e-	1r	.
.	.	2G/	-te	.	.	2b\	-xul-	.	.
=11-	=11-	=11-	=11-	=11-	=11-	=11-	=11-	=11-	=11-
*	*ij	*	*	*	*	*	*	*	*
1AA	Gau-	1A	o-	1e	me-	0cc	-ta-	00.r	.
1C	-de-	2A/	-mnes	1e	-cu(m)	.	.	.	.
*	*	*	*	*	*Xij	*	*	*	*
.	.	2A/	et	.	.	.	.	.	.
*	*	*	*	*custos:g	*	*	*	*	*
1D	-te	2G/	e-	1r	.	1cc	-te	.	.
*	*	*custos:G	*	*	*	*	*	*	*
.	.	2F/	-xul-	.	.	.	.	.	.
!	!	!LO:LB:g=original	!	!LO:LB:g=original	!	!	!	!	!
=12-	=12-	=12-	=12-	=12-	=12-	=12-	=12-	=12-	=12-
1E	o-	0G	-ta-	1g	O-	1b	me-	.	.
2E\	-mnes	.	.	2g\	-mnes	1g	-cu(m)	.	.
2E\	et	.	.	2g\	et	.	.	.	.
2D/	e-	1G	-te	2f\	e-	1r	.	.	.
2C/	-xul-	.	.	2e\	-xul-	.	.	.	.
=13-	=13-	=13-	=13-	=13-	=13-	=13-	=13-	=13-	=13-
*	*	*	*	*col	*	*	*	*	*ij
0D	-ta-	0.d	me-	0f	-ta-	0.r	.	1f	Gau-
.	.	.	.	.	.	.	.	1a	-de-
*	*	*	*	*Xcol	*	*	*	*	*
1D	-te	.	.	1f	-te	.	.	1b	-te
!LO:LB:g=original	!	!	!	!	!	!	!	!	!
=14-	=14-	=14-	=14-	=14-	=14-	=14-	=14-	=14-	=14-
0.C	me-	0.G	-cu(m)	1e	me-	1c	Gau-	1cc	o-
.	.	.	.	0d	-cu(m)	1.e	-de-	2cc\	-mnes
.	.	.	.	.	.	.	.	2cc\	et
.	.	.	.	.	.	.	.	2b\	e-
.	.	.	.	.	.	2f/	-te	2a\	-xul-
=15-	=15-	=15-	=15-	=15-	=15-	=15-	=15-	=15-	=15-
*	*	*	*ij	*	*	*	*	*	*
0.GG	-cu(m)	1G	gau-	00.r	.	1g	o-	0b	-ta-
*	*Xij	*	*	*	*	*	*	*	*
.	.	1.B	-de-	.	.	2g/	-mnes	.	.
.	.	.	.	.	.	2g/	et	.	.
.	.	.	.	.	.	2f/	e-	1b	-te
.	.	2c\	-te	.	.	2e/	-xul-	.	.
=16-	=16-	=16-	=16-	=16-	=16-	=16-	=16-	=16-	=16-
1D	Gau-	1d	o-	.	.	0f	-ta-	1a	me-
1F	-de-	2d\	-mnes	.	.	.	.	1a	-cu(m)
*	*	*	*	*	*	*	*	*	*Xij
.	.	2d\	et	.	.	.	.	.	.
*	*	*	*	*	*	*custos:e	*	*	*
1G	-te	2c\	e-	.	.	1f	-te	1r	.
.	.	2B\	-xul-	.	.	.	.	.	.
!	!	!	!	!	!	!LO:LB:g=original	!	!	!
=17-	=17-	=17-	=17-	=17-	=17-	=17-	=17-	=17-	=17-
1A	o-	1c	-ta-	0.r	.	1e	me-	1cc	O-
2A\	-mnes	1c	-te	.	.	1e	-cu(m)	2cc\	-mnes
*	*	*	*Xij	*	*	*	*	*	*
2A\	et	.	.	.	.	.	.	2cc\	et
2G\	e-	1r	.	.	.	1rg	.	2b\	e-
2F\	-xul-	.	.	.	.	.	.	2a\	-xul-
=18-	=18-	=18-	=18-	=18-	=18-	=18-	=18-	=18-	=18-
0G	-ta-	1B	gau-	1d	Gau-	0.r	.	0b	-ta-
.	.	1.B	-de-	1d	-de-	.	.	.	.
1G	-te	.	.	1e	-te	.	.	1b	-te
.	.	2c\	-te	.	.	.	.	.	.
=19-	=19-	=19-	=19-	=19-	=19-	=19-	=19-	=19-	=19-
0F	me-	1d	o-	1f	o-	1a	Gau-	1a	me-
.	.	0A	-mnes	2f\	-(mn)es	1cc	-de-	1a	-cu(m)
.	.	.	.	2g\	et	.	.	.	.
!LO:TX:t=P:problem=kreska pseudotaktowa	!	!	!	!	!	!	!	!	!
1F	-cu(m)	.	.	2a\	e-	1dd	-te	1r	.
.	.	.	.	2f\	-xul-	.	.	.	.
=20-	=20-	=20-	=20-	=20-	=20-	=20-	=20-	=20-	=20-
1E	O-	0.r	.	1g	-ta-	1ee	o-	0.r	.
2E\	-mnes	.	.	1g	-te	2ee\	-mnes	.	.
2E\	et	.	.	.	.	2gg\	et	.	.
2D/	e-	.	.	1rg	.	2ff\	e-	.	.
2C/	-xul-	.	.	.	.	2ee\	-xul-	.	.
=21-	=21-	=21-	=21-	=21-	=21-	=21-	=21-	=21-	=21-
0.D	-ta-	1d	et	1f	me-	1ff	-ta-	1a	Gau-
.	.	2d\	e-	2f\	-cu(m)	1dd	-te	1a	-de-
.	.	2d\	-xul-	2f\	o-	.	.	.	.
.	.	2c\	-ta-	2e\	-mnes	1ree	.	1b	-te
.	.	2B\	-te	2d\	et	.	.	.	.
!	!	!	!	!	!	!	!	!LO:LB:g=original	!
=22-	=22-	=22-	=22-	=22-	=22-	=22-	=22-	=22-	=22-
0.AA	-te	1c	me-	1e	e-	1a	o-	1cc	o-
.	.	1c	-cu(m)	1e	-xultate	2a\	-mnes	2cc\	-mnes
.	.	.	.	.	.	2a\	et	2cc\	et
*	*	*	*	*custos:g	*	*	*	*	*
!	!	!	!	!LO:TX:t=P:problem=skreślone nuty	!	!	!	!	!
.	.	1r	.	1r	.	2g/	e-	2b\	e-
.	.	.	.	.	.	2f/	-xul-	2a\	-xul-
!	!	!	!	!LO:LB:g=original	!	!	!	!	!
=23-	=23-	=23-	=23-	=23-	=23-	=23-	=23-	=23-	=23-
*	*	*	*ij	*	*	*	*	*	*
0.E	me-	1e	et	1g	o-	1g	-ta-	1b	-ta-
.	.	2e\	e-	2g\	-mnes	1g	-te	1b	-te
*	*	*custos:d	*	*	*	*	*	*	*
.	.	2e\	-xul-	2g\	et	.	.	.	.
!	!	!LO:LB:g=original	!	!	!	!	!	!	!
.	.	2d\	-ta-	2f\	e-	1r	.	1r	.
.	.	2c\	-te	2e\	-xul-	.	.	.	.
=24-	=24-	=24-	=24-	=24-	=24-	=24-	=24-	=24-	=24-
0.D	.	1d	me-	0f	-ta-	1a	Gau-	1ff	O-
.	.	1A	-cu(m)	.	.	1a	-de-	2ff\	-mnes
*	*	*	*Xij	*	*	*	*	*	*
.	.	.	.	.	.	.	.	2ff\	et
.	.	1rA	.	1f	-te	1b	-te	2ee\	e-
.	.	.	.	.	.	.	.	2dd\	-xul-
=25-	=25-	=25-	=25-	=25-	=25-	=25-	=25-	=25-	=25-
0.C	-cu(m)	1G	o-	0e	me-	1cc	o-	0ee	-ta-
.	.	2A/	-mnes	.	.	2cc\	-mnes	.	.
.	.	2A/	et	.	.	2cc\	et	.	.
.	.	2A/	e-	1d	.	2cc\	e-	1ee	-te
*	*	*	*	*	*	*custos:a	*	*	*
.	.	2G/	-xul-	.	.	2b\	-xul-	.	.
!	!	!	!	!	!	!LO:LB:g=original	!	!	!
=26-	=26-	=26-	=26-	=26-	=26-	=26-	=26-	=26-	=26-
!LO:TX:a:t=3	!	!	!	!LO:N:vis=00	!	!	!	!LO:N:vis=00	!
!LO:N:vis=00	!	!	!	!	!	!	!	!	!
00.D	me-	0F	-ta-	00.d	.	0a	-ta-	00.dd	me-
.	.	0G	-te	.	.	1b	-te	.	.
=27-	=27-	=27-	=27-	=27-	=27-	=27-	=27-	=27-	=27-
.	.	.	.	.	.	0.a	me-	.	.
.	.	0F	me-	.	.	.	.	.	.
=28-	=28-	=28-	=28-	=28-	=28-	=28-	=28-	=28-	=28-
0.GGl;	-cu(m)	0.Gl;	-cu(m)	0.dl;<	-cu(m)	0.gl;	-cu(m)	0.bl;<	-cu(m)
!	!	!	!	!	!	!	!	!LO:LB:g=original	!
=29||-	=29||-	=29||-	=29||-	=29||-	=29||-	=29||-	=29||-	=29||-	=29||-
*M2/1	*	*M2/1	*	*M2/1	*	*M2/1	*	*M2/1	*
*met(c|)	*	*met(c|)	*	*met(c|)	*	*met(c|)	*	*met(c|)	*
*>B	*	*>B	*	*>B	*	*>B	*	*>B	*
00r	.	00r	.	00r	.	00r	.	1dd	San-
.	.	.	.	.	.	.	.	2dd\	-cte
!	!	!	!	!	!	!	!	!LO:TX:t=P:lyrics:global:problem=symbol wskazujący na imię świętego	!
.	.	.	.	.	.	.	.	2dd\	.
=30-	=30-	=30-	=30-	=30-	=30-	=30-	=30-	=30-	=30-
.	.	.	.	.	.	.	.	1ee	.
.	.	.	.	.	.	.	.	1cc	.
=31-	=31-	=31-	=31-	=31-	=31-	=31-	=31-	=31-	=31-
0r	.	0r	.	00r	.	00r	.	1cc	O-
.	.	.	.	.	.	.	.	2b\	-ra
!	!	!	!	!	!	!	!	!LO:TX:t=P:problem=wymazana nuta	!
.	.	.	.	.	.	.	.	2g/	pro
=32-	=32-	=32-	=32-	=32-	=32-	=32-	=32-	=32-	=32-
1r	.	1r	.	.	.	.	.	1a	no-
2r	.	4r	.	.	.	.	.	2g/	-bis
!	!	!LO:TX:t=P:lyrics:global:problem=symbol wskazujący na imię świętego	!	!	!	!	!	!	!
.	.	4d\	.	.	.	.	.	.	.
4r	.	8B\	.	.	.	.	.	2r	.
.	.	8c\	.	.	.	.	.	.	.
!LO:TX:t=P:lyrics:global:problem=symbol wskazujący na imię świętego	!	!	!	!	!	!	!	!	!
4G\	.	8d\	De-	.	.	.	.	.	.
.	.	8B\	-o	.	.	.	.	.	.
=33-	=33-	=33-	=33-	=33-	=33-	=33-	=33-	=33-	=33-
8E\	.	4c\	ca-	4r	.	0rg	.	00r	.
8F\	.	.	.	.	.	.	.	.	.
!	!	!	!	!LO:TX:t=P:lyrics:global:problem=symbol wskazujący na imię świętego	!	!	!	!	!
8G\	De-	8c\	-re	4e\	.	.	.	.	.
8E\	-o	8c\	.	.	.	.	.	.	.
4F\	ca-	8A/	.	8c/	.	.	.	.	.
.	.	8G/	.	8B/	.	.	.	.	.
8F\	-re	8A/	De-	8c/	.	.	.	.	.
8E\	.	8B\	-o	8d\	.	.	.	.	.
8C/	.	4.c\	ca-	4e\	De-	.	.	.	.
8AA/	.	.	.	.	.	.	.	.	.
8C/	De-	.	.	8e\	-o	.	.	.	.
8D/	-o	16B\LL	.	8e\	ca-	.	.	.	.
*	*	*custos:G	*	*	*	*	*	*	*
.	.	16A\JJ	.	.	.	.	.	.	.
!	!	!LO:LB:g=original	!	!	!	!	!	!	!
4.E\	ca-	4.G/	.	8B/	-re	.	.	.	.
.	.	.	.	8A/	.	.	.	.	.
.	.	.	.	8B/	.	.	.	.	.
16D/LL	ca-	16F/LL	.	8c/	.	.	.	.	.
16C/JJ	.	16E/JJ	.	.	.	.	.	.	.
=34-	=34-	=34-	=34-	=34-	=34-	=34-	=34-	=34-	=34-
4.BB/	.	4D/	.	4.d\	De-	1rg	.	.	.
.	.	2G/	.	.	.	.	.	.	.
8C/	.	.	.	16c/LL	-o	.	.	.	.
.	.	.	.	16B/JJ	.	.	.	.	.
2D/	.	.	.	2A/	ca-	.	.	.	.
!	!	!LO:TX:b:t=P:problem=# below	!	!	!	!	!	!	!
.	.	4F#X/	.	.	.	.	.	.	.
2GG/	-re	2G/	-re	2B/	-re	4re	.	.	.
.	.	.	.	.	.	4d/	pro	.	.
*	*	*	*	*custos:d	*	*	*	*	*
4r	.	2r	.	2rA	.	4g/	no-	.	.
4D/	pro	.	.	.	.	4f/	-bis	.	.
!	!	!	!	!LO:LB:g=original	!	!	!	!	!
=35-	=35-	=35-	=35-	=35-	=35-	=35-	=35-	=35-	=35-
4G\	no-	4r	.	2r	.	4b\	in-	1dd	San-
4F\	-bis	4D/	pro	.	.	4a\	-ter-	.	.
4B-X\	in-	4G/	no-	4r	.	4g/	-ce-	.	.
4A\	-ter-	4Fny/	-bis	4d\	.	4a\	-de	.	.
4G\	-ce-	4B-X\	in-	4g\	no-	2r	.	2dd\	-cte
*custos:D	*	*	*	*	*	*	*	*	*
!	!	!	!	!LO:TX:a:t=P:problem=# above	!	!	!	!	!
4D/	-de	4A/	-ter-	4f#X\	-bis	.	.	.	.
!LO:LB:g=original	!	!	!	!	!	!	!	!	!
4r	.	4G/	-ce-	4g\	in-	4r	.	2dd\	.
*	*ij	*	*	*	*	*	*ij	*	*
4D/	pro	4F/	-de	4a\	-ter-	4a\	pro	.	.
=36-	=36-	=36-	=36-	=36-	=36-	=36-	=36-	=36-	=36-
4A\	no-	4r	.	2e\	-ce-	4cc\	no-	1ee	.
!LO:TX:b:t=P:problem=# below	!	!	!	!	!	!	!	!	!
*	*	*	*ij	*	*	*	*	*	*
4G#X\	-bis	4E/	pro	.	.	4b\	-bis	.	.
4A\	in-	4A/	no-	4e\	-de	4cc\	in-	.	.
*	*	*	*	*	*ij	*	*	*	*
!	!	!LO:TX:b:t=P:problem=# below	!	!	!	!	!	!	!
4E\	-ter-	4G#X/	-bis	4e\	pro	4b\	-ter-	.	.
4F\	-ce-	4A/	in-	4fny\	no-	4a\	-ce-	1cc	.
8C/	-de	4E/	-ter-	4e\	-bis	8g/	-de	.	.
*	*Xij	*	*	*	*	*	*Xij	*	*
8C/	pro	.	.	.	.	8g/	pro	.	.
4F\	no-	4F/	-ce-	4c/	in-	4a\	no-	.	.
4E\	-bis	8C,</	-de	4e\	-ter-	4g/	-bis	.	.
*	*	*	*Xij	*	*	*	*	*	*
.	.	8C/	pro	.	.	.	.	.	.
=37-	=37-	=37-	=37-	=37-	=37-	=37-	=37-	=37-	=37-
4F\	in-	4F/	no-	4A/	-ce-	4f/	in-	1cc	O-
4C/	-ter-	4E/	-bis	8c,</	-de	4g\	-ter-	.	.
*	*	*	*	*	*Xij	*	*	*	*
.	.	.	.	8c/	pro	.	.	.	.
4F\	-ce-	4F/	in-	4A/	no-	4a\	-ce-	.	.
*	*	*	*	*	*	*custos:dd	*	*	*
4E\	-de	4C/	-ter-	4c/	-bis	4g/	-de	.	.
!	!	!	!	!	!	!LO:LB:g=original	!	!	!
1r	.	4Gny/	-ce-	4d\	in-	4r	.	2b\	-ra
.	.	8G,</	-de	4g\	-ter-	4dd\	pro	.	.
*	*	*	*ij	*	*	*	*	*	*
.	.	8G/	pro	.	.	.	.	.	.
.	.	4c\	no-	8e\L	-ce-	4cc\	no-	2g/	pro
.	.	.	.	8f\	.	.	.	.	.
.	.	4e\	-bis	8g\	.	4b\	-bis	.	.
.	.	.	.	8e\J	.	.	.	.	.
=38-	=38-	=38-	=38-	=38-	=38-	=38-	=38-	=38-	=38-
!	!	!	!	!LO:TX:a:t=P:problem=# above	!	!	!	!	!
2r	.	4d\	in-	4f#X\	.	4dd\	in-	1a	no-
.	.	4c\	-ter-	2g\	.	4ee\	-ter-	.	.
4r	.	2d\	-ce-	.	.	2dd\	-ce-	.	.
4D/	Tu	.	.	4f#\	.	.	.	.	.
4Gny\	ſol	2d\	-de	2g\	-de	2b\	-de	2g/	-bis
*	*	*	*Xij	*	*	*	*	*	*
8r	.	.	.	.	.	.	.	.	.
8G\	re-	.	.	.	.	.	.	.	.
*	*	*custos:A	*	*	*	*	*	*	*
16E\LL	-ful-	2rc	.	2r	.	2rb	.	2r	.
16D\	.	.	.	.	.	.	.	.	.
16C\	.	.	.	.	.	.	.	.	.
16D\JJ	.	.	.	.	.	.	.	.	.
16E\LL	.	.	.	.	.	.	.	.	.
16F\	.	.	.	.	.	.	.	.	.
16G\	.	.	.	.	.	.	.	.	.
16E\JJ	.	.	.	.	.	.	.	.	.
!	!	!LO:LB:g=original	!	!	!	!	!	!	!
=39-	=39-	=39-	=39-	=39-	=39-	=39-	=39-	=39-	=39-
4F\	.	1r	.	1r	.	00r	.	00r	.
8F\	-gens	.	.	.	.	.	.	.	.
8F\	au-	.	.	.	.	.	.	.	.
4D/	-ro-	.	.	.	.	.	.	.	.
8D/	-ra	.	.	.	.	.	.	.	.
*custos:E	*	*	*	*	*	*	*	*	*
8D/	con-	.	.	.	.	.	.	.	.
!LO:LB:g=original	!	!	!	!	!	!	!	!	!
2E\	-fur-	2r	.	4e\	Ro-	.	.	.	.
.	.	.	.	8e\	-ſa	.	.	.	.
.	.	.	.	8e\	pur-	.	.	.	.
2AA/	-gens	4A/	Ro-	8c/	-pu-	.	.	.	.
.	.	.	.	8c/	-re-	.	.	.	.
.	.	8A/	-ſa	4c/	-a	.	.	.	.
.	.	8A/	pur-	.	.	.	.	.	.
!	!	!	!	!LO:LB:g=original	!	!	!	!	!
=40-	=40-	=40-	=40-	=40-	=40-	=40-	=40-	=40-	=40-
1r	.	4F/	-pu-	8d\	ſtel-	.	.	.	.
.	.	.	.	8d\	-la	.	.	.	.
.	.	8E/	-re-	8d\	ſtel-	.	.	.	.
.	.	8F,</	-a	8d\	-la	.	.	.	.
.	.	8G/	ſtel-	8B/L	ma-	.	.	.	.
.	.	8G/	-la	8c/	.	.	.	.	.
.	.	8G/	ma-	8d/	.	.	.	.	.
.	.	8G/	-tu-	8B/J	.	.	.	.	.
2r	.	8E/L	-ti-	4.c/	-tu-	.	.	.	.
.	.	8F/J	.	.	.	.	.	.	.
.	.	2G/	.	.	.	.	.	.	.
.	.	.	.	8B/	.	.	.	.	.
4r	.	.	.	8A/L	-ti-	.	.	.	.
.	.	.	.	8G/J	.	.	.	.	.
!	!	!LO:TX:b:t=P:problem=# below	!	!	!	!	!	!	!
4D/	Tu	4F#X/	.	4A/	-na	.	.	.	.
=41-	=41-	=41-	=41-	=41-	=41-	=41-	=41-	=41-	=41-
*	*	*	*	*	*	*	*	*	*ij
4G\	fol	4G,</	-na	2B/	.	2rb	.	2g/	San-
8r	.	4G/	tu	.	.	.	.	.	.
8G\	re-	.	.	.	.	.	.	.	.
16E'\LL	-ful-	4.c\	ſol	2rA	.	4ee\	Ro-	4g/	-cte
16D\	.	.	.	.	.	.	.	.	.
16C\	.	.	.	.	.	.	.	.	.
16D\JJ	.	.	.	.	.	.	.	.	.
16E\LL	.	.	.	.	.	8ee\	-ſa	4g/	.
16F\	.	.	.	.	.	.	.	.	.
16G\	.	8c\	re-	.	.	8ee\	pur-	.	.
16E\JJ	.	.	.	.	.	.	.	.	.
*	*	*	*	*	*	*	*	*custos:f	*
4F\	.	16A/LL	-ful-	2r	.	8cc\	-pu-	2a\	.
.	.	16G/	.	.	.	.	.	.	.
.	.	16Fny/	.	.	.	8cc\	-re-	.	.
.	.	16G/JJ	.	.	.	.	.	.	.
8F\	-gens	16A\LL	.	.	.	4cc\	-a	.	.
.	.	16Bny\	.	.	.	.	.	.	.
8F\	au-	16c\	.	.	.	.	.	.	.
.	.	16A\JJ	.	.	.	.	.	.	.
!	!	!	!	!	!	!	!	!LO:LB:g=original	!
4D/	-ro-	4d\	.	4d\	ro-	8dd\	ſtel-	2f/	.
.	.	.	.	.	.	8dd\	-la	.	.
8D/	-ra	4A/	-genſ	8d\	-ſa	8dd\	ma-	.	.
8D/	con-	.	.	8d\	pur-	8dd\	-tu-	.	.
=42-	=42-	=42-	=42-	=42-	=42-	=42-	=42-	=42-	=42-
4E\	-fur-	4r	.	8B/	-pu-	4g/	-ti-	2e/	O-
.	.	.	.	8B/	-re-	.	.	.	.
4C/	-gens	4G/	au-	4B/	-a	4g/	-na	.	.
2rBB	.	4A/	-ro-	8c/	ſtel-	8e/	ſtel-	4c/	-ra
.	.	.	.	8c/	-la	8e/	-la	.	.
.	.	8F/	-ra	8c/	ma-	8a\	ma-	4c/	pro
.	.	8F/	con-	8c/	-tu-	8a\	-tu-	.	.
4G\	Ro-	2G/	-ſur-	(4c/	-ti-	2g/	-ti-	2d/	no-
8G\	-fa	.	.	4B/)	.	.	.	.	.
8G\	pur-	.	.	.	.	.	.	.	.
8E\	-pu-	2C/	-gens	2c/	-na	2g/	-na	2c/	-bis
*	*	*	*	*	*	*	*	*	*Xij
8E\	-re-	.	.	.	.	.	.	.	.
4E\	-a	.	.	.	.	.	.	.	.
=43-	=43-	=43-	=43-	=43-	=43-	=43-	=43-	=43-	=43-
8F\	ſtel-	2r	.	1r	.	0r	.	0r	.
8F\	-la	.	.	.	.	.	.	.	.
8F\	ma-	.	.	.	.	.	.	.	.
*custos:D	*	*	*	*	*	*	*	*	*
8F\	-tu-	.	.	.	.	.	.	.	.
!LO:LB:g=original	!	!	!	!	!	!	!	!	!
4D/	-ti-	4d\	Ro-	.	.	.	.	.	.
4D/	-na	8d\	-ſa	.	.	.	.	.	.
.	.	8d\	pur-	.	.	.	.	.	.
*	*	*	*	*	*ij	*	*	*	*
8G\	ſtel-	8B\	-pu-	4g\	ro-	.	.	.	.
8G\	-la	8B\	-re-	.	.	.	.	.	.
8B-X\	ma-	4d\	-a	8g\	-ſa	.	.	.	.
8B-\	-tu-	.	.	8d\	pur-	.	.	.	.
2A\	-ti-	8d\	ſtel-	8e\	-pu-	.	.	.	.
*	*	*custos:c	*	*	*	*	*	*	*
.	.	8c\	-la	8e\	-re-	.	.	.	.
*	*	*	*	*custos:f	*	*	*	*	*
!	!	!LO:LB:g=original	!	!	!	!	!	!	!
.	.	8c\	ma-	4e\	-a	.	.	.	.
.	.	8c\	-tu-	.	.	.	.	.	.
!	!	!	!	!LO:LB:g=original	!	!	!	!	!
=44-	=44-	=44-	=44-	=44-	=44-	=44-	=44-	=44-	=44-
4D/	-na	2d\	-ti-	8f#X\	ſtel-	4r	.	2dd\	San-
.	.	.	.	8f#\	-la	.	.	.	.
*	*	*	*	*	*	*custos:b	*	*	*
4D/	tu	.	.	8f#\	ma-	4a\	Tu	.	.
.	.	.	.	8f#\	-tu-	.	.	.	.
!	!	!	!	!	!	!LO:LB:g=original	!	!	!
4.G\	ſol	2B\	-na	4g\	-ti-	4.b\	ſol	4dd\	-cte
.	.	.	.	4d\	-na	.	.	4dd\	.
*	*	*	*	*	*Xij	*	*	*	*
!	!	!	!	!	!	!LO:TX:t=P:problem=kreska pseudotaktowa	!	!	!
8G\	re-	.	.	.	.	8b\	re-	.	.
16E\LL	-ful-	4r	.	2r	.	16g/LL	-ful-	2ee\	.
16D\	.	.	.	.	.	16f/	.	.	.
16C\	.	.	.	.	.	16e/	.	.	.
16D\JJ	.	.	.	.	.	16f/JJ	.	.	.
16E\LL	.	4c\	tu	.	.	16g\LL	.	.	.
16F\	.	.	.	.	.	16a\	.	.	.
16G\	.	.	.	.	.	16b\	.	.	.
16F\JJ	.	.	.	.	.	16a\JJ	.	.	.
4F\	.	4A/	Sol	4re	.	4a\	.	2cc\	.
8F\	-gens	8r	.	4f#\	Tu	8a\	-gens	.	.
!	!	!	!	!	!	!LO:TX:t=P:problem=kreska pseudotaktowa	!	!	!
8F\	au-	8A/	re-	.	.	8a\	au-	.	.
=45-	=45-	=45-	=45-	=45-	=45-	=45-	=45-	=45-	=45-
4G\	-ro-	16B\LL	-ful-	4d\	ſol	4g/	-ro-	2b\	O-
.	.	16A\	.	.	.	.	.	.	.
.	.	16G\	.	.	.	.	.	.	.
.	.	16A\JJ	.	.	.	.	.	.	.
8G\	-ra	16B\LL	.	8r	.	8dd\	-ra	.	.
.	.	16c\	.	.	.	.	.	.	.
8G\	con-	16d\	.	8d\	re-	8dd\	con-	.	.
.	.	16B\JJ	.	.	.	.	.	.	.
2E\	-fur-	4c\	.	16e\LL	-ful-	4cc\	-ſur-	4g/	-ra
.	.	.	.	16d\	.	.	.	.	.
.	.	.	.	16c\	.	.	.	.	.
.	.	.	.	16d\JJ	.	.	.	.	.
.	.	8B,<\	-gens	16e\LL	.	4g/	-gens	4g/	pro
.	.	.	.	16fny\	.	.	.	.	.
.	.	8B\	au-	16g\	.	.	.	.	.
.	.	.	.	16f\JJ	.	.	.	.	.
2D/	-gens	4d\	.	4f\	.	2r	.	2a\	no-
.	.	8d\	-ro-	4.f\	-gens	.	.	.	.
.	.	8d\	-ra	.	.	.	.	.	.
2r	.	4B\	con-	.	.	4g/	Ro-	2g/	-bis
.	.	.	.	8e\	au-	.	.	.	.
.	.	8c\	-fur-	4e\	-ro-	8g/	-ſa	.	.
.	.	8c\	-gens	.	.	8g/	pur-	.	.
=46-	=46-	=46-	=46-	=46-	=46-	=46-	=46-	=46-	=46-
2rF	.	4.F/	con-	8e\	-ra	8a\	-pu-	00r	.
.	.	.	.	8d\	con-	8a\	-r-	.	.
.	.	.	.	2d\	-fur-	4a\	-a	.	.
.	.	8G/	.	.	.	.	.	.	.
4rF	.	2A/	-fur-	.	.	8e/	ſtel-	.	.
.	.	.	.	.	.	8e/	-la	.	.
!	!	!	!	!LO:TX:b:t=P:problem=# below	!	!	!	!	!
4A\	in	.	.	4c#X/	.	8e/	ma-	.	.
.	.	.	.	.	.	8e/	-tu-	.	.
4F\	tem-	4D/	-gens	2d\	-gens	4f/	-ti-	.	.
*custos:G	*	*	*	*	*	*	*	*	*
!	!	!LO:TX:t=P:problem=pauza 4 z podwójną kreską [przyjęto 8]	!	!	!	!	!	!	!
4D/	-plo	8r	.	.	.	4f/	-na	.	.
.	.	8d\	in	.	.	.	.	.	.
!LO:LB:g=original	!	!	!	!	!	!	!	!	!
4G\	De-	4B\	tem-	2r	.	2r	.	.	.
8E\	-i	4G/	-plo	.	.	.	.	.	.
8F\	in	.	.	.	.	.	.	.	.
=47-	=47-	=47-	=47-	=47-	=47-	=47-	=47-	=47-	=47-
8E\	ar-	8c\	Dei	0r	.	1r	.	.	.
8F\	-ce	8c\	in	.	.	.	.	.	.
8G\	Pa-	8A\	ar-	.	.	.	.	.	.
8E\	-ra-	8A\	-ce	.	.	.	.	.	.
!LO:TX:a:t=P:problem=# above	!	!	!	!	!	!	!	!	!
4F#X\	-di-	4c\	Pa-	.	.	.	.	.	.
*	*	*custos:A	*	*	*	*	*	*	*
2G\	.	4c\	-ra-	.	.	.	.	.	.
!	!	!LO:LB:g=original	!	!	!	!	!	!	!
.	.	2A/	-di-	.	.	4r	.	.	.
4F#\	.	.	.	.	.	4dd\	in	.	.
4G\	-ſi	2G/	-ſi	.	.	4b\	tem-	.	.
*	*	*	*	*	*	*custos:cc	*	*	*
4G\	in	.	.	.	.	4g/	-plo	.	.
!	!	!	!	!	!	!LO:LB:g=original	!	!	!
=48-	=48-	=48-	=48-	=48-	=48-	=48-	=48-	=48-	=48-
*	*	*	*ij	*	*	*	*	*	*ij
4E\	tem-	4r	.	2r	.	2cc\	De-	1g	San-
4C/	-plo	4c\	in	.	.	.	.	.	.
2G\	De-	8B\	ar-	4r	.	4dd\	-i	.	.
.	.	8G/	-ce	.	.	.	.	.	.
.	.	8A/	Pa-	4d\	in	8r	.	.	.
!	!	!	!	!	!	!LO:TX:t=P:problem=kreska pseudotaktowa	!	!	!
.	.	8c\	-ra-	.	.	8g/	in	.	.
4G\	-i	2d\	-di-	4B/	tem-	8b\	ar-	2g/	-cte
.	.	.	.	.	.	8cc\	-ce	.	.
*	*	*	*	*custos:g	*	*	*	*	*
4G\	in	.	.	4G/	-plo	8dd\	pa-	.	.
.	.	.	.	.	.	8b\	-ra-	.	.
!	!	!	!	!LO:LB:g=original	!	!	!	!	!
8E\	ar-	2e\	-ſi	2g\	De-	2cc\	-di-	2g/	.
8Fny\	-ce	.	.	.	.	.	.	.	.
8G\	pa-	.	.	.	.	.	.	.	.
8E\	-ra-	.	.	.	.	.	.	.	.
=49-	=49-	=49-	=49-	=49-	=49-	=49-	=49-	=49-	=49-
4F\	-di-	4r	.	4cny/	-i	2cc\	-ſi	1a	.
4F\	-ſi	4c\	in	4f\	in	.	.	.	.
2r	.	8A/	ar-	8c/	ar-	4ra	.	.	.
.	.	8B\	-ce	8d\	-ce	.	.	.	.
.	.	8c\	Pa-	8e\	pa-	4cc\	in	.	.
.	.	8A/	-ra-	8c/	-ra-	.	.	.	.
4r	.	4d\	-di-	4f\	-di-	4a\	tem-	2f/	.
4F\	in	4A/	-ſi	4c/	.	4f/	-plo	.	.
8D/	ar-	4r	.	2d\	-ſi	1.a\	De-	2f/	O-
8E\	-ce	.	.	.	.	.	.	.	.
8F\	pa-	4d\	in	.	.	.	.	.	.
8D/	-ra-	.	.	.	.	.	.	.	.
=50-	=50-	=50-	=50-	=50-	=50-	=50-	=50-	=50-	=50-
2A\	-di-	8c\	ar-	4r	.	.	.	2e/	-ra
.	.	8d\	-ce	.	.	.	.	.	.
.	.	8e\	Pa-	4a\	in	.	.	.	.
!	!	!LO:TX:a:t=P:problem=# above	!	!	!	!	!	!	!
.	.	8c#X\	-ra-	.	.	.	.	.	.
2D/	-ſi	4d\	-di-	4f\	.	.	.	2e/	pro
.	.	8d,<\	-ſi	4d\	tem-	.	.	.	.
*	*ij	*	*Xij	*	*	*	*	*	*
.	.	8d\	in	.	.	.	.	.	.
4r	.	4B\	tem-	4g\	.	2b\	-i	0.d	no-
*custos:F	*	*	*	*	*	*	*	*	*
4G\	in	4G/	-plo	4g\	-plo	.	.	.	.
!LO:LB:g=original	!	!	!	!	!	!	!	!	!
8F\	ar-	4A/	De-	2r	.	4r	.	.	.
8G\	-ce	.	.	.	.	.	.	.	.
*	*	*	*	*	*	*	*ij	*	*
8A\	pa-	4D/	-i	.	.	4dd\	in	.	.
8F\	-ra-	.	.	.	.	.	.	.	.
=51-	=51-	=51-	=51-	=51-	=51-	=51-	=51-	=51-	=51-
4G\	-di-	4rF	.	2r	.	4b\	tem-	.	.
4GG/	.	4G/	in	.	.	4g/	-plo	.	.
2D/	.	8F/	ar-	4r	.	4dd\	De-	.	.
.	.	8G/	-ce	.	.	.	.	.	.
*	*	*	*	*	*ij	*	*	*	*
.	.	8A/	Pa-	4d\	in	8dd\	-i	.	.
*	*	*	*	*	*	*	*Xij	*	*
.	.	8F/	-ra-	.	.	8a\	in	.	.
*	*	*custos:C	*	*	*	*	*	*	*
1GGl	-ſi	1G	-di-	4B/	.	8b\	ar-	.	.
*	*Xij	*	*	*	*	*	*	*	*
.	.	.	.	.	.	8cc\	-ce	.	.
.	.	.	.	4G/	tem-	8dd\	pa-	.	.
.	.	.	.	.	.	8cc\	-ra-	.	.
.	.	.	.	4d\	.	4cc\	-di-	.	.
.	.	.	.	8G/	-plo	4b\	.	.	.
*	*	*	*	*	*Xij	*	*	*	*
.	.	.	.	8g\	in	.	.	.	.
!	!	!LO:LB:g=original	!	!	!	!	!	!LO:LB:g=original	!
=52-	=52-	=52-	=52-	=52-	=52-	=52-	=52-	=52-	=52-
!LO:TX:t=P:problem=fermata na pauzach wielotaktowych	!	!	!	!	!	!	!	!	!
00r;<	.	4.C/	-ſi	8e\	ar-	2cc\	-ſi	0cl;	-bis
*	*	*	*ij	*	*	*	*	*	*Xij
.	.	.	.	8f\	-ce	.	.	.	.
.	.	.	.	8g\	pa-	.	.	.	.
.	.	8cny\	in	8e\	-ra-	.	.	.	.
.	.	8A/	ar-	2f\	-di-	4r	.	.	.
.	.	8B\	-ce	.	.	.	.	.	.
*	*	*	*	*	*	*	*ij	*	*
*	*	*	*	*	*	*custos:a	*	*	*
.	.	8c\	Pa-	.	.	4cc\	in	.	.
.	.	8A/	-ra-	.	.	.	.	.	.
!	!	!	!	!	!	!LO:LB:g=original	!	!	!
.	.	2d\	-di-	4f\	-ſi	8a\	ar-	.	.
.	.	.	.	.	.	8g/	-ce	.	.
*	*	*	*	*	*ij	*	*	*	*
.	.	.	.	4f\	in	8a\	pa-	.	.
.	.	.	.	.	.	8b\	-ra-	.	.
.	.	2c\	.	8e\	ar-	1cc\	-di-	.	.
.	.	.	.	8f\	-ce	.	.	.	.
.	.	.	.	8g\	pa-	.	.	.	.
*	*	*	*	*custos:f#	*	*	*	*	*
.	.	.	.	8e\	-ra-	.	.	.	.
!	!	!	!	!LO:LB:g=original	!	!	!	!	!
=53-	=53-	=53-	=53-	=53-	=53-	=53-	=53-	=53-	=53-
!	!	!	!	!LO:TX:t=P:problem=# below	!	!	!	!	!
.	.	0d	.	2f#X\	-di-	.	.	00r	.
.	.	.	.	1g	.	2b\	.	.	.
.	.	.	.	.	.	1a	.	.	.
.	.	.	.	2f#\	.	.	.	.	.
=54-	=54-	=54-	=54-	=54-	=54-	=54-	=54-	=54-	=54-
!LO:N:vis=1	!	!	!	!	!	!	!	!	!
0r	.	0Gl;	-ſi	0gl;	-ſi	0gl;	-ſi	.	.
*	*	*	*Xij	*	*Xij	*	*Xij	*	*
=55||	=55||	=55||	=55||	=55||	=55||	=55||	=55||	=55||	=55||
*M3/2	*	*M3/2	*	*M3/2	*	*M3/2	*	*M3/2	*
!LO:TX:b:t=Gaudete ut Sup	!	!LO:TX:b:t=Gaudete ut Supra	!	!LO:TX:b:t=Gaudete Ut Supra	!	!LO:TX:b:t=Gaudete ut Sup	!	!LO:TX:b:t=Gaudete Ut Supra	!
!LO:TX:t=P:problem=fragment powtórzenia części A	!	!LO:TX:t=P:problem=fragment powtórzenia części A	!	!LO:TX:t=P:problem=fragment powtórzenia części A	!	!LO:TX:t=P:problem=fragment powtórzenia części A	!	!LO:TX:t=P:problem=fragment powtórzenia części A	!
00.r	.	00.r	.	0.r	.	00.r	.	1g	.
.	.	.	.	.	.	.	.	1a	.
.	.	.	.	.	.	.	.	1cc	.
=56-	=56-	=56-	=56-	=56-	=56-	=56-	=56-	=56-	=56-
!	!	!	!	!	!	!	!	!LO:TX:t=P:problem=kreska pseudotaktowa	!
.	.	.	.	1d	.	.	.	1dd	.
.	.	.	.	1f	.	.	.	0ryy	.
*	*	*	*	*custos:a	*	*	*	*	*
!	!	!	!	!LO:TX:t=P:problem=kreska pseudotaktowa	!	!	!	!	!
.	.	.	.	1g	.	.	.	.	.
=57-	=57-	=57-	=57-	=57-	=57-	=57-	=57-	=57-	=57-
00.r	.	0.rF	.	0.ryy	.	00.r	.	0.ryy	.
=58-	=58-	=58-	=58-	=58-	=58-	=58-	=58-	=58-	=58-
.	.	1G	.	0.ryy	.	.	.	0.ryy	.
.	.	1B	.	.	.	.	.	.	.
*	*	*custos:d	*	*	*	*	*	*	*
.	.	1c	.	.	.	.	.	.	.
=59-	=59-	=59-	=59-	=59-	=59-	=59-	=59-	=59-	=59-
1D	.	0.ryy	.	0.ryy	.	00.r	.	0.ryy	.
1F	.	.	.	.	.	.	.	.	.
*custos:A	*	*	*	*	*	*	*	*	*
1G	.	.	.	.	.	.	.	.	.
=60-	=60-	=60-	=60-	=60-	=60-	=60-	=60-	=60-	=60-
0.ryy	.	0.ryy	.	0.ryy	.	.	.	0.ryy	.
=61-	=61-	=61-	=61-	=61-	=61-	=61-	=61-	=61-	=61-
0.ryy	.	0.ryy	.	0.ryy	.	00.r	.	0.ryy	.
=62-	=62-	=62-	=62-	=62-	=62-	=62-	=62-	=62-	=62-
0.ryy	.	0.ryy	.	0.ryy	.	.	.	0.ryy	.
=63-	=63-	=63-	=63-	=63-	=63-	=63-	=63-	=63-	=63-
0.ryy	.	0.ryy	.	0.ryy	.	1g	.	0.ryy	.
.	.	.	.	.	.	1b	.	.	.
*	*	*	*	*	*	*custos:dd	*	*	*
.	.	.	.	.	.	1cc	.	.	.
==	==	==	==	==	==	==	==	==	==
*-	*-	*-	*-	*-	*-	*-	*-	*-	*-
!!!system-decoration: [g1]
!!!RDF**kern: > = above
!!!RDF**kern: < = below
!!!RDF**kern: l = terminal long
!!!AIN: 1 alto 1 empty 1 tenor 2 vox
!!!ENC: Andrzej Kubiczek
!!!END: 2021-04-05
!!!ENC: Anastazja Marusiak
!!!END: 2021-03-29
